X:1
T:Glorious Resurrection
T:G. Froelich
T:Glorious Resurrection
T:Public Domain
T:Public Domain
C:G. Froelich
Z:Public Domain
%%score ( 1 2 ) ( 3 4 )
L:1/8
M:4/4
K:F
V:1 treble 
V:2 treble 
V:3 bass 
V:4 bass 
V:1
 F>[FG] | [FA]2 [FA]2 (3(BA)[F^G] | [FA]2 F2 [FA]>[GB] | [Ac]2 [Ac]2 (3([Bd][Ac])[^G=B] | %4
w: 1.~When the|ter snow de- * scend-|Child- ren’s thoughts with|ture tend- ed * T’ward|
w: 2.~But when|comes soft- ly * breath-|Melts the ice, and|ers wreath- ing, * Gar-|
w: 3.~So while|their songs are * peal-|Sing we with de-|tion’s feel- ing, * “Yea,|
 [Ac]2 [FA]2 [FA]>[DF] | [CE]2 [EG]2 (3(=BA)[FB] | [Ec]4 [Bd]>[EG] | [GB]2 [GB]2 (3([EG][FA])[GB] | %8
w: the birth- day of|the Lord; And * through-|the Christ- mas|fes- tal, Win- * ter|
w: lands fair each bank|and strand. Then * we|“The Lord is|ris- en, He * has|
w: the Lord is ris’n|in- deed!” We * with|shall rise, death|scorn- ing, To * an|
 [Ac]2 [Ac]2 [Bd]>[EG] | [FA]2 [Gc]2 (3(fe)[Fd] | [Ge]2 [Ec]2 [Fd]>[F^c] | %11
w: pure and snow of|ves- tal, Plea- * sures|did oft af- ford.|
w: burst the rock- y|pris- on!” East- * er|ols fill the land.|
w: end- less East- er|morn- ing! Glor- * ious|sur- rect- ion creed.|
 [Fd]2 [FG]2 (3([GB][FA])[EG] | F4 ||[M:9/8] (FA)"^Refrain"c | d3 (z3 EDE | !>!G3 F3) (Ac)f | %16
w: Hal- le- lu- * jah!|Hal-|lu- * jah!|Christ * * *|* * is * ris-|
w: |||||
w: |||||
 e3 (z3 ^FEF | !>!A3 G3) (d^c)[=Gd] | (A2 A) [Ac]2 [Ac] (ed)[Be] | [Af]6 |] %20
w: to * * *|* * * * set|||
w: ||||
w: ||||
V:2
 F3/2 x/ | x4 F2 | x2 F2 x2 | x6 | x6 | x4 E2 | x6 | x6 | x6 | x4 F2 | x6 | x6 | F4 ||[M:9/8] x3 | %14
w: win-|ed,|rap-|||out||||rich|||le-||
w: spring|ing,|flow-|||sing,||||car-|||||
w: chimes|ing,|vo-|||Him||||re-|||||
 x3 c6- | c6 x3 | x3 d6- | d6 ^G2 x | c3 x G2 x3 | x6 |] %20
w: |en||us free.|||
w: ||||||
w: ||||||
V:3
 [F,A,]>[F,B,] | [F,C]2 [F,C]2 (3(DC)[G,=B,] | [F,C]2 [F,A,]2 [F,C]>[F,C] | %3
w: ~ ~|~ ~ ~ * ~|~ ~ ~ ~|
 [F,C]2 [F,C]2 (3(B,C)[F,D] | [F,C]2 [F,C]2 [D,D]>[D,A,] | G,2 [G,C]2 (3(DC)[G,D] | %6
w: ~ ~ ~ * ~|~ ~ ~ ~|~ ~ ~ * ~|
 [C,C]4 [C,C]>[C,C] | [C,C]2 [C,C]2 (3:2:2[C,C]2 [C,C] | [F,C]2 [F,F]2 [C,E]>[C,E] | %9
w: ~ ~ ~|~ ~ ~ ~|~ ~ ~ ~|
 [F,C]2 [E,C]2 (3:2:2[D,=B,]2 [G,B,] | C2 [CE]2 [B,D]>[B,D] | [B,,B,]2 [B,,D]2 (3(G,A,)B, | %12
w: ~ ~ ~ ~|~ ~ ~ ~|Christ is ris- * en,|
 [F,A,]4 ||[M:9/8] z3 | z6 [B,C]2 [G,B,] | [A,C]3 [A,C]3 z3 | z6 [A,C]2 [A,C] | %17
w: is||ris- en,|Hal- le-|lu- jah!|
 [B,D]3 [B,D]3 [=B,F]2 [B,F] | [CF]2 [CF] [CF]2 [CF] C2 C | [F,C]6 |] %20
w: ris’n to set us|free. * * * * *||
V:4
 x2 | x4 F,2 | x6 | x4 F,2 | x6 | G,2 G,2 x2 | x6 | x6 | x6 | x6 | C2 x4 | x4 C,2 | x4 || %13
w: |~||~||~ ~|||||~|Christ||
[M:9/8] x3 | x9 | x9 | x9 | x9 | x6 C2 C | x6 |] %20
w: |||||||

